X:210
T:Whelan's   
B:CRE1.049 (Port Ui Fhaolain)
F:file ID: cre.1/210whelan
S:Matthew Tiernan
M:6/8
Q:160
R:jig
K:Em
E3 BAF|FEB AFD|E3 BAF|dAF FED|
E3 BAF|FEB AFA|B^c/d/B BAF|dAF FED:|
B3 e3|fed e3|Bdf g3|fdB AFA|
B3 e3|fed e2f|gbg faf|edB AFA:|

%%%

